Origami/48x48/apps/flightgear.svg

<svg width="48" height="48" version="1" xmlns="http://www.w3.org/2000/svg">
 <rect transform="matrix(0,-1,-1,0,0,0)" x="-45" y="-44" width="40" height="40" rx="2" ry="2" style="opacity:.2"/>
 <rect transform="matrix(0,-1,-1,0,0,0)" x="-44" y="-44" width="40" height="40" rx="2" ry="2" style="fill:#1e88e5"/>
 <path d="m6 4c-1.108 0-2 0.892-2 2v1c0-1.108 0.892-2 2-2h36c1.108 0 2 0.892 2 2v-1c0-1.108-0.892-2-2-2h-36z" style="fill:#ffffff;opacity:.2"/>
 <path d="m40 10.672q0 1.993-3.413 5.406l-5.497 5.498 3.276 17.087 0.022 0.137q0 0.32-0.205 0.528l-1.468 1.466q-0.205 0.205-0.525 0.205-0.483 0-0.666-0.411l-6.276-13.172-5.612 5.611q1.558 5.453 1.558 5.773t-0.206 0.526l-1.466 1.468q-0.206 0.205-0.527 0.205-0.412 0-0.641-0.368l-3.551-6.413-6.4135-3.55q-0.3895-0.206-0.3895-0.642 0-0.32 0.2062-0.526l1.466-1.489q0.2062-0.206 0.5268-0.206 0.321 0 5.772 1.558l5.612-5.612-13.1707-6.276q-0.4123-0.183-0.4123-0.665 0-0.32 0.2062-0.526l1.466-1.466q0.2062-0.206 0.5268-0.206 0.092 0 0.137 0.023l17.088 3.275 5.497-5.497q3.415-3.413 5.406-3.413 0.733 0 1.204 0.4694 0.469 0.4695 0.469 1.2026z" style="fill:#2873b4"/>
 <path d="m40 9.6724q0 1.9926-3.413 5.4056l-5.497 5.498 3.276 17.087 0.022 0.137q0 0.32-0.205 0.528l-1.468 1.466q-0.205 0.205-0.525 0.205-0.483 0-0.666-0.411l-6.276-13.172-5.612 5.611q1.558 5.453 1.558 5.773t-0.206 0.526l-1.466 1.468q-0.206 0.205-0.527 0.205-0.412 0-0.641-0.368l-3.551-6.413-6.4135-3.55q-0.3895-0.206-0.3895-0.642 0-0.32 0.2062-0.526l1.466-1.489q0.2062-0.206 0.5268-0.206 0.321 0 5.772 1.558l5.612-5.612-13.1707-6.276q-0.4123-0.183-0.4123-0.665 0-0.32 0.2062-0.526l1.466-1.466q0.2062-0.206 0.5268-0.206 0.092 0 0.137 0.023l17.088 3.275 5.497-5.497q3.415-3.413 5.406-3.413 0.733 0 1.204 0.4694 0.469 0.4695 0.469 1.2025z" style="fill:#ffffff"/>
</svg>

<svg xmlns="http://www.w3.org/2000/svg" width="48" height="48" version="1">
 <rect style="opacity:0.2" width="40" height="40" x="-45" y="-44" rx="2" ry="2" transform="matrix(0,-1,-1,0,0,0)"/>
 <rect style="fill:#1e88e5" width="40" height="40" x="-44" y="-44" rx="2" ry="2" transform="matrix(0,-1,-1,0,0,0)"/>
 <path style="opacity:0.2;fill:#ffffff" d="m6 4c-1.108 0-2 0.892-2 2v1c0-1.108 0.892-2 2-2h36c1.108 0 2 0.892 2 2v-1c0-1.108-0.892-2-2-2h-36z"/>
 <path style="fill:#2873b4" d="M 40,10.672 Q 40,12.665 36.587,16.078 L 31.09,21.576 34.366,38.663 34.388,38.8 Q 34.388,39.12 34.183,39.328 L 32.715,40.794 Q 32.51,40.999 32.19,40.999 31.707,40.999 31.524,40.588 L 25.248,27.416 19.636,33.027 Q 21.194,38.48 21.194,38.8 21.194,39.12 20.988,39.326 L 19.522,40.794 Q 19.316,40.999 18.995,40.999 18.583,40.999 18.354,40.631 L 14.803,34.218 8.3895,30.668 Q 8,30.462 8,30.026 8,29.706 8.2062,29.5 L 9.6722,28.011 Q 9.8784,27.805 10.199,27.805 10.52,27.805 15.971,29.363 L 21.583,23.751 8.4123,17.475 Q 8,17.292 8,16.81 8,16.49 8.2062,16.284 L 9.6722,14.818 Q 9.8784,14.612 10.199,14.612 10.291,14.612 10.336,14.635 L 27.424,17.91 32.921,12.413 Q 36.336,9 38.327,9 39.06,9 39.531,9.4694 40,9.9389 40,10.672 Z"/>
 <path style="fill:#ffffff" d="M 40,9.6724 Q 40,11.665 36.587,15.078 L 31.09,20.576 34.366,37.663 34.388,37.8 Q 34.388,38.12 34.183,38.328 L 32.715,39.794 Q 32.51,39.999 32.19,39.999 31.707,39.999 31.524,39.588 L 25.248,26.416 19.636,32.027 Q 21.194,37.48 21.194,37.8 21.194,38.12 20.988,38.326 L 19.522,39.794 Q 19.316,39.999 18.995,39.999 18.583,39.999 18.354,39.631 L 14.803,33.218 8.3895,29.668 Q 8,29.462 8,29.026 8,28.706 8.2062,28.5 L 9.6722,27.011 Q 9.8784,26.805 10.199,26.805 10.52,26.805 15.971,28.363 L 21.583,22.751 8.4123,16.475 Q 8,16.292 8,15.81 8,15.49 8.2062,15.284 L 9.6722,13.818 Q 9.8784,13.612 10.199,13.612 10.291,13.612 10.336,13.635 L 27.424,16.91 32.921,11.413 Q 36.336,8 38.327,8 39.06,8 39.531,8.4694 40,8.9389 40,9.6719 Z"/>
</svg>
